images/50376992.svg

<?xml version="1.0" encoding="UTF-8"?>
<svg xmlns="http://www.w3.org/2000/svg" xmlns:xlink="http://www.w3.org/1999/xlink" width="300pt" height="300pt" viewBox="0 0 300 300" version="1.1">
<defs>
<g>
<symbol overflow="visible" id="glyph0-0">
<path style="stroke:none;" d="M 0.453125 1.59375 L 0.453125 -6.34375 L 4.953125 -6.34375 L 4.953125 1.59375 Z M 0.953125 1.09375 L 4.453125 1.09375 L 4.453125 -5.84375 L 0.953125 -5.84375 Z M 0.953125 1.09375 "/>
</symbol>
<symbol overflow="visible" id="glyph0-1">
<path style="stroke:none;" d="M 4.8125 -6.34375 L 4.8125 -5.484375 C 4.476562 -5.640625 4.160156 -5.753906 3.859375 -5.828125 C 3.566406 -5.910156 3.28125 -5.953125 3 -5.953125 C 2.507812 -5.953125 2.132812 -5.859375 1.875 -5.671875 C 1.613281 -5.484375 1.484375 -5.21875 1.484375 -4.875 C 1.484375 -4.582031 1.570312 -4.363281 1.75 -4.21875 C 1.925781 -4.070312 2.253906 -3.953125 2.734375 -3.859375 L 3.28125 -3.75 C 3.9375 -3.625 4.421875 -3.398438 4.734375 -3.078125 C 5.054688 -2.765625 5.21875 -2.34375 5.21875 -1.8125 C 5.21875 -1.175781 5.003906 -0.691406 4.578125 -0.359375 C 4.148438 -0.0351562 3.523438 0.125 2.703125 0.125 C 2.390625 0.125 2.054688 0.0859375 1.703125 0.015625 C 1.359375 -0.046875 1 -0.148438 0.625 -0.296875 L 0.625 -1.203125 C 0.976562 -1.003906 1.328125 -0.851562 1.671875 -0.75 C 2.023438 -0.644531 2.367188 -0.59375 2.703125 -0.59375 C 3.203125 -0.59375 3.585938 -0.691406 3.859375 -0.890625 C 4.140625 -1.085938 4.28125 -1.375 4.28125 -1.75 C 4.28125 -2.070312 4.179688 -2.320312 3.984375 -2.5 C 3.785156 -2.675781 3.460938 -2.8125 3.015625 -2.90625 L 2.46875 -3.015625 C 1.8125 -3.148438 1.332031 -3.359375 1.03125 -3.640625 C 0.738281 -3.921875 0.59375 -4.3125 0.59375 -4.8125 C 0.59375 -5.382812 0.796875 -5.835938 1.203125 -6.171875 C 1.609375 -6.515625 2.171875 -6.6875 2.890625 -6.6875 C 3.203125 -6.6875 3.515625 -6.65625 3.828125 -6.59375 C 4.148438 -6.539062 4.476562 -6.457031 4.8125 -6.34375 Z M 4.8125 -6.34375 "/>
</symbol>
<symbol overflow="visible" id="glyph0-2">
<path style="stroke:none;" d="M 3.546875 -5.953125 C 2.898438 -5.953125 2.382812 -5.710938 2 -5.234375 C 1.625 -4.753906 1.4375 -4.101562 1.4375 -3.28125 C 1.4375 -2.445312 1.625 -1.789062 2 -1.3125 C 2.382812 -0.832031 2.898438 -0.59375 3.546875 -0.59375 C 4.191406 -0.59375 4.703125 -0.832031 5.078125 -1.3125 C 5.453125 -1.789062 5.640625 -2.445312 5.640625 -3.28125 C 5.640625 -4.101562 5.453125 -4.753906 5.078125 -5.234375 C 4.703125 -5.710938 4.191406 -5.953125 3.546875 -5.953125 Z M 3.546875 -6.6875 C 4.460938 -6.6875 5.195312 -6.375 5.75 -5.75 C 6.300781 -5.132812 6.578125 -4.3125 6.578125 -3.28125 C 6.578125 -2.238281 6.300781 -1.410156 5.75 -0.796875 C 5.195312 -0.179688 4.460938 0.125 3.546875 0.125 C 2.617188 0.125 1.878906 -0.179688 1.328125 -0.796875 C 0.773438 -1.410156 0.5 -2.238281 0.5 -3.28125 C 0.5 -4.3125 0.773438 -5.132812 1.328125 -5.75 C 1.878906 -6.375 2.617188 -6.6875 3.546875 -6.6875 Z M 3.546875 -6.6875 "/>
</symbol>
<symbol overflow="visible" id="glyph0-3">
<path style="stroke:none;" d="M 0.890625 -6.5625 L 2.078125 -6.5625 L 4.984375 -1.078125 L 4.984375 -6.5625 L 5.84375 -6.5625 L 5.84375 0 L 4.65625 0 L 1.75 -5.484375 L 1.75 0 L 0.890625 0 Z M 0.890625 -6.5625 "/>
</symbol>
<symbol overflow="visible" id="glyph0-4">
<path style="stroke:none;" d="M 0.890625 -6.5625 L 4.65625 -6.5625 L 4.65625 -5.8125 L 1.765625 -5.8125 L 1.765625 -3.875 L 4.375 -3.875 L 4.375 -3.140625 L 1.765625 -3.140625 L 1.765625 0 L 0.890625 0 Z M 0.890625 -6.5625 "/>
</symbol>
</g>
</defs>
<g id="surface26525">
<rect x="0" y="0" width="300" height="300" style="fill:rgb(100%,100%,100%);fill-opacity:1;stroke:none;"/>
<path style="fill:none;stroke-width:1.2;stroke-linecap:butt;stroke-linejoin:miter;stroke:rgb(80%,80%,0%);stroke-opacity:1;stroke-miterlimit:10;" d="M 85.746094 166.363281 L 96.511719 164.347656 "/>
<path style="fill:none;stroke-width:1.2;stroke-linecap:butt;stroke-linejoin:miter;stroke:rgb(100%,0%,0%);stroke-opacity:1;stroke-miterlimit:10;" d="M 96.511719 164.347656 L 107.273438 162.335938 "/>
<path style="fill:none;stroke-width:1.2;stroke-linecap:butt;stroke-linejoin:miter;stroke:rgb(80%,80%,0%);stroke-opacity:1;stroke-miterlimit:10;" d="M 84.800781 161.296875 L 95.5625 159.285156 "/>
<path style="fill:none;stroke-width:1.2;stroke-linecap:butt;stroke-linejoin:miter;stroke:rgb(100%,0%,0%);stroke-opacity:1;stroke-miterlimit:10;" d="M 95.5625 159.285156 L 106.324219 157.269531 "/>
<path style="fill:none;stroke-width:1.2;stroke-linecap:butt;stroke-linejoin:miter;stroke:rgb(80%,80%,0%);stroke-opacity:1;stroke-miterlimit:10;" d="M 85.273438 163.828125 L 81.636719 174.15625 "/>
<path style="fill:none;stroke-width:1.2;stroke-linecap:butt;stroke-linejoin:miter;stroke:rgb(0%,0%,0%);stroke-opacity:1;stroke-miterlimit:10;" d="M 81.636719 174.15625 L 77.996094 184.484375 "/>
<path style="fill:none;stroke-width:1.2;stroke-linecap:butt;stroke-linejoin:miter;stroke:rgb(80%,80%,0%);stroke-opacity:1;stroke-miterlimit:10;" d="M 85.273438 163.828125 L 78.148438 155.515625 "/>
<path style="fill:none;stroke-width:1.2;stroke-linecap:butt;stroke-linejoin:miter;stroke:rgb(0%,0%,0%);stroke-opacity:1;stroke-miterlimit:10;" d="M 78.148438 155.515625 L 71.023438 147.203125 "/>
<path style=" stroke:none;fill-rule:nonzero;fill:rgb(100%,100%,100%);fill-opacity:1;" d="M 82.273438 158.328125 L 88.273438 158.328125 L 88.273438 169.328125 L 82.273438 169.328125 Z M 82.273438 158.328125 "/>
<g style="fill:rgb(80%,80%,0%);fill-opacity:1;">
  <use xlink:href="#glyph0-1" x="82.273438" y="166.991211"/>
</g>
<path style=" stroke:none;fill-rule:nonzero;fill:rgb(100%,100%,100%);fill-opacity:1;" d="M 102.796875 154.304688 L 110.796875 154.304688 L 110.796875 165.304688 L 102.796875 165.304688 Z M 102.796875 154.304688 "/>
<g style="fill:rgb(100%,0%,0%);fill-opacity:1;">
  <use xlink:href="#glyph0-2" x="102.796875" y="162.967773"/>
</g>
<path style="fill:none;stroke-width:1.2;stroke-linecap:butt;stroke-linejoin:miter;stroke:rgb(0%,0%,0%);stroke-opacity:1;stroke-miterlimit:10;" d="M 71.023438 147.203125 L 49.5 151.226562 "/>
<path style="fill:none;stroke-width:1.2;stroke-linecap:butt;stroke-linejoin:miter;stroke:rgb(0%,0%,0%);stroke-opacity:1;stroke-miterlimit:10;" d="M 67.925781 142.539062 L 50.703125 145.761719 "/>
<path style="fill:none;stroke-width:1.2;stroke-linecap:butt;stroke-linejoin:miter;stroke:rgb(0%,0%,0%);stroke-opacity:1;stroke-miterlimit:10;" d="M 78.300781 126.546875 L 71.023438 147.203125 "/>
<path style="fill:none;stroke-width:1.2;stroke-linecap:butt;stroke-linejoin:miter;stroke:rgb(0%,0%,0%);stroke-opacity:1;stroke-miterlimit:10;" d="M 49.5 151.226562 L 35.25 134.597656 "/>
<path style="fill:none;stroke-width:1.2;stroke-linecap:butt;stroke-linejoin:miter;stroke:rgb(0%,0%,0%);stroke-opacity:1;stroke-miterlimit:10;" d="M 35.25 134.597656 L 42.527344 113.945312 "/>
<path style="fill:none;stroke-width:1.2;stroke-linecap:butt;stroke-linejoin:miter;stroke:rgb(0%,0%,0%);stroke-opacity:1;stroke-miterlimit:10;" d="M 40.835938 134.246094 L 46.65625 117.722656 "/>
<path style="fill:none;stroke-width:1.2;stroke-linecap:butt;stroke-linejoin:miter;stroke:rgb(0%,0%,0%);stroke-opacity:1;stroke-miterlimit:10;" d="M 42.527344 113.945312 L 64.050781 109.917969 "/>
<path style="fill:none;stroke-width:1.2;stroke-linecap:butt;stroke-linejoin:miter;stroke:rgb(0%,0%,0%);stroke-opacity:1;stroke-miterlimit:10;" d="M 64.050781 109.917969 L 78.300781 126.546875 "/>
<path style="fill:none;stroke-width:1.2;stroke-linecap:butt;stroke-linejoin:miter;stroke:rgb(0%,0%,0%);stroke-opacity:1;stroke-miterlimit:10;" d="M 61.5625 114.933594 L 72.960938 128.238281 "/>
<path style="fill:none;stroke-width:1.2;stroke-linecap:butt;stroke-linejoin:miter;stroke:rgb(0%,0%,0%);stroke-opacity:1;stroke-miterlimit:10;" d="M 78.300781 126.546875 L 99.824219 122.519531 "/>
<path style="fill:none;stroke-width:1.2;stroke-linecap:butt;stroke-linejoin:miter;stroke:rgb(0%,0%,0%);stroke-opacity:1;stroke-miterlimit:10;" d="M 99.824219 122.519531 L 106.949219 130.835938 "/>
<path style="fill:none;stroke-width:1.2;stroke-linecap:butt;stroke-linejoin:miter;stroke:rgb(80%,80%,0%);stroke-opacity:1;stroke-miterlimit:10;" d="M 106.949219 130.835938 L 114.074219 139.148438 "/>
<path style="fill:none;stroke-width:1.2;stroke-linecap:butt;stroke-linejoin:miter;stroke:rgb(80%,80%,0%);stroke-opacity:1;stroke-miterlimit:10;" d="M 114.074219 139.148438 L 124.835938 137.136719 "/>
<path style="fill:none;stroke-width:1.2;stroke-linecap:butt;stroke-linejoin:miter;stroke:rgb(0%,0%,0%);stroke-opacity:1;stroke-miterlimit:10;" d="M 124.835938 137.136719 L 135.597656 135.125 "/>
<path style=" stroke:none;fill-rule:nonzero;fill:rgb(100%,100%,100%);fill-opacity:1;" d="M 111.074219 133.648438 L 117.074219 133.648438 L 117.074219 144.648438 L 111.074219 144.648438 Z M 111.074219 133.648438 "/>
<g style="fill:rgb(80%,80%,0%);fill-opacity:1;">
  <use xlink:href="#glyph0-1" x="111.074219" y="142.311523"/>
</g>
<path style="fill:none;stroke-width:1.2;stroke-linecap:butt;stroke-linejoin:miter;stroke:rgb(0%,0%,0%);stroke-opacity:1;stroke-miterlimit:10;" d="M 135.597656 135.125 L 142.722656 143.4375 "/>
<path style="fill:none;stroke-width:1.2;stroke-linecap:butt;stroke-linejoin:miter;stroke:rgb(0%,0%,100%);stroke-opacity:1;stroke-miterlimit:10;" d="M 142.722656 143.4375 L 149.847656 151.75 "/>
<path style="fill:none;stroke-width:1.2;stroke-linecap:butt;stroke-linejoin:miter;stroke:rgb(0%,0%,0%);stroke-opacity:1;stroke-miterlimit:10;" d="M 140.9375 133.433594 L 146.636719 140.085938 "/>
<path style="fill:none;stroke-width:1.2;stroke-linecap:butt;stroke-linejoin:miter;stroke:rgb(0%,0%,100%);stroke-opacity:1;stroke-miterlimit:10;" d="M 146.636719 140.085938 L 152.335938 146.734375 "/>
<path style="fill:none;stroke-width:1.2;stroke-linecap:butt;stroke-linejoin:miter;stroke:rgb(0%,0%,100%);stroke-opacity:1;stroke-miterlimit:10;" d="M 142.875 114.46875 L 139.238281 124.796875 "/>
<path style="fill:none;stroke-width:1.2;stroke-linecap:butt;stroke-linejoin:miter;stroke:rgb(0%,0%,0%);stroke-opacity:1;stroke-miterlimit:10;" d="M 139.238281 124.796875 L 135.597656 135.125 "/>
<path style="fill:none;stroke-width:1.2;stroke-linecap:butt;stroke-linejoin:miter;stroke:rgb(0%,0%,100%);stroke-opacity:1;stroke-miterlimit:10;" d="M 149.847656 151.75 L 160.613281 149.738281 "/>
<path style="fill:none;stroke-width:1.2;stroke-linecap:butt;stroke-linejoin:miter;stroke:rgb(0%,0%,0%);stroke-opacity:1;stroke-miterlimit:10;" d="M 160.613281 149.738281 L 171.375 147.726562 "/>
<path style=" stroke:none;fill-rule:nonzero;fill:rgb(100%,100%,100%);fill-opacity:1;" d="M 146.847656 146.25 L 153.847656 146.25 L 153.847656 157.25 L 146.847656 157.25 Z M 146.847656 146.25 "/>
<g style="fill:rgb(0%,0%,100%);fill-opacity:1;">
  <use xlink:href="#glyph0-3" x="146.847656" y="154.913086"/>
</g>
<path style="fill:none;stroke-width:1.2;stroke-linecap:butt;stroke-linejoin:miter;stroke:rgb(0%,0%,0%);stroke-opacity:1;stroke-miterlimit:10;" d="M 171.375 147.726562 L 178.648438 127.070312 "/>
<path style="fill:none;stroke-width:1.2;stroke-linecap:butt;stroke-linejoin:miter;stroke:rgb(0%,0%,0%);stroke-opacity:1;stroke-miterlimit:10;" d="M 167.242188 143.949219 L 173.0625 127.425781 "/>
<path style="fill:none;stroke-width:1.2;stroke-linecap:butt;stroke-linejoin:miter;stroke:rgb(0%,0%,0%);stroke-opacity:1;stroke-miterlimit:10;" d="M 171.375 147.726562 L 185.625 164.351562 "/>
<path style="fill:none;stroke-width:1.2;stroke-linecap:butt;stroke-linejoin:miter;stroke:rgb(0%,0%,0%);stroke-opacity:1;stroke-miterlimit:10;" d="M 178.648438 127.070312 L 164.402344 110.441406 "/>
<path style="fill:none;stroke-width:1.2;stroke-linecap:butt;stroke-linejoin:miter;stroke:rgb(0%,0%,0%);stroke-opacity:1;stroke-miterlimit:10;" d="M 178.648438 127.070312 L 200.175781 123.042969 "/>
<path style="fill:none;stroke-width:1.2;stroke-linecap:butt;stroke-linejoin:miter;stroke:rgb(0%,0%,0%);stroke-opacity:1;stroke-miterlimit:10;" d="M 164.402344 110.441406 L 153.636719 112.457031 "/>
<path style="fill:none;stroke-width:1.2;stroke-linecap:butt;stroke-linejoin:miter;stroke:rgb(0%,0%,100%);stroke-opacity:1;stroke-miterlimit:10;" d="M 153.636719 112.457031 L 142.875 114.46875 "/>
<path style="fill:none;stroke-width:1.2;stroke-linecap:butt;stroke-linejoin:miter;stroke:rgb(0%,0%,0%);stroke-opacity:1;stroke-miterlimit:10;" d="M 163.195312 115.910156 L 154.585938 117.519531 "/>
<path style="fill:none;stroke-width:1.2;stroke-linecap:butt;stroke-linejoin:miter;stroke:rgb(0%,0%,100%);stroke-opacity:1;stroke-miterlimit:10;" d="M 154.585938 117.519531 L 145.976562 119.128906 "/>
<path style=" stroke:none;fill-rule:nonzero;fill:rgb(100%,100%,100%);fill-opacity:1;" d="M 139.875 108.96875 L 146.875 108.96875 L 146.875 119.96875 L 139.875 119.96875 Z M 139.875 108.96875 "/>
<g style="fill:rgb(0%,0%,100%);fill-opacity:1;">
  <use xlink:href="#glyph0-3" x="139.875" y="117.631836"/>
</g>
<path style="fill:none;stroke-width:1.2;stroke-linecap:butt;stroke-linejoin:miter;stroke:rgb(0%,0%,0%);stroke-opacity:1;stroke-miterlimit:10;" d="M 200.175781 123.042969 L 214.425781 139.671875 "/>
<path style="fill:none;stroke-width:1.2;stroke-linecap:butt;stroke-linejoin:miter;stroke:rgb(0%,0%,0%);stroke-opacity:1;stroke-miterlimit:10;" d="M 205.511719 121.355469 L 216.910156 134.65625 "/>
<path style="fill:none;stroke-width:1.2;stroke-linecap:butt;stroke-linejoin:miter;stroke:rgb(0%,0%,0%);stroke-opacity:1;stroke-miterlimit:10;" d="M 207.449219 102.390625 L 200.175781 123.042969 "/>
<path style="fill:none;stroke-width:1.2;stroke-linecap:butt;stroke-linejoin:miter;stroke:rgb(0%,0%,0%);stroke-opacity:1;stroke-miterlimit:10;" d="M 214.425781 139.671875 L 235.949219 135.648438 "/>
<path style="fill:none;stroke-width:1.2;stroke-linecap:butt;stroke-linejoin:miter;stroke:rgb(0%,0%,0%);stroke-opacity:1;stroke-miterlimit:10;" d="M 235.949219 135.648438 L 243.226562 114.992188 "/>
<path style="fill:none;stroke-width:1.2;stroke-linecap:butt;stroke-linejoin:miter;stroke:rgb(0%,0%,0%);stroke-opacity:1;stroke-miterlimit:10;" d="M 231.816406 131.871094 L 237.636719 115.347656 "/>
<path style="fill:none;stroke-width:1.2;stroke-linecap:butt;stroke-linejoin:miter;stroke:rgb(0%,0%,0%);stroke-opacity:1;stroke-miterlimit:10;" d="M 243.226562 114.992188 L 253.988281 112.980469 "/>
<path style="fill:none;stroke-width:1.2;stroke-linecap:butt;stroke-linejoin:miter;stroke:rgb(20%,80%,80%);stroke-opacity:1;stroke-miterlimit:10;" d="M 253.988281 112.980469 L 264.75 110.964844 "/>
<path style="fill:none;stroke-width:1.2;stroke-linecap:butt;stroke-linejoin:miter;stroke:rgb(0%,0%,0%);stroke-opacity:1;stroke-miterlimit:10;" d="M 243.226562 114.992188 L 228.976562 98.363281 "/>
<path style=" stroke:none;fill-rule:nonzero;fill:rgb(100%,100%,100%);fill-opacity:1;" d="M 261.75 105.464844 L 267.75 105.464844 L 267.75 116.464844 L 261.75 116.464844 Z M 261.75 105.464844 "/>
<g style="fill:rgb(20%,80%,80%);fill-opacity:1;">
  <use xlink:href="#glyph0-4" x="261.75" y="114.12793"/>
</g>
<path style="fill:none;stroke-width:1.2;stroke-linecap:butt;stroke-linejoin:miter;stroke:rgb(0%,0%,0%);stroke-opacity:1;stroke-miterlimit:10;" d="M 228.976562 98.363281 L 207.449219 102.390625 "/>
<path style="fill:none;stroke-width:1.2;stroke-linecap:butt;stroke-linejoin:miter;stroke:rgb(0%,0%,0%);stroke-opacity:1;stroke-miterlimit:10;" d="M 227.769531 103.832031 L 210.550781 107.050781 "/>
<path style="fill:none;stroke-width:1.2;stroke-linecap:butt;stroke-linejoin:miter;stroke:rgb(0%,0%,0%);stroke-opacity:1;stroke-miterlimit:10;" d="M 185.625 164.351562 L 178.347656 185.007812 "/>
<path style="fill:none;stroke-width:1.2;stroke-linecap:butt;stroke-linejoin:miter;stroke:rgb(0%,0%,0%);stroke-opacity:1;stroke-miterlimit:10;" d="M 189.753906 168.128906 L 183.933594 184.652344 "/>
<path style="fill:none;stroke-width:1.2;stroke-linecap:butt;stroke-linejoin:miter;stroke:rgb(0%,0%,0%);stroke-opacity:1;stroke-miterlimit:10;" d="M 207.148438 160.328125 L 185.625 164.351562 "/>
<path style="fill:none;stroke-width:1.2;stroke-linecap:butt;stroke-linejoin:miter;stroke:rgb(0%,0%,0%);stroke-opacity:1;stroke-miterlimit:10;" d="M 178.347656 185.007812 L 192.597656 201.636719 "/>
<path style="fill:none;stroke-width:1.2;stroke-linecap:butt;stroke-linejoin:miter;stroke:rgb(0%,0%,0%);stroke-opacity:1;stroke-miterlimit:10;" d="M 192.597656 201.636719 L 203.359375 199.621094 "/>
<path style="fill:none;stroke-width:1.2;stroke-linecap:butt;stroke-linejoin:miter;stroke:rgb(0%,0%,100%);stroke-opacity:1;stroke-miterlimit:10;" d="M 203.359375 199.621094 L 214.121094 197.609375 "/>
<path style="fill:none;stroke-width:1.2;stroke-linecap:butt;stroke-linejoin:miter;stroke:rgb(0%,0%,0%);stroke-opacity:1;stroke-miterlimit:10;" d="M 193.800781 196.167969 L 202.410156 194.558594 "/>
<path style="fill:none;stroke-width:1.2;stroke-linecap:butt;stroke-linejoin:miter;stroke:rgb(0%,0%,100%);stroke-opacity:1;stroke-miterlimit:10;" d="M 202.410156 194.558594 L 211.023438 192.949219 "/>
<path style="fill:none;stroke-width:1.2;stroke-linecap:butt;stroke-linejoin:miter;stroke:rgb(0%,0%,100%);stroke-opacity:1;stroke-miterlimit:10;" d="M 214.121094 197.609375 L 217.757812 187.28125 "/>
<path style="fill:none;stroke-width:1.2;stroke-linecap:butt;stroke-linejoin:miter;stroke:rgb(0%,0%,0%);stroke-opacity:1;stroke-miterlimit:10;" d="M 217.757812 187.28125 L 221.398438 176.957031 "/>
<path style=" stroke:none;fill-rule:nonzero;fill:rgb(100%,100%,100%);fill-opacity:1;" d="M 211.121094 192.109375 L 218.121094 192.109375 L 218.121094 203.109375 L 211.121094 203.109375 Z M 211.121094 192.109375 "/>
<g style="fill:rgb(0%,0%,100%);fill-opacity:1;">
  <use xlink:href="#glyph0-3" x="211.121094" y="200.772461"/>
</g>
<path style="fill:none;stroke-width:1.2;stroke-linecap:butt;stroke-linejoin:miter;stroke:rgb(0%,0%,0%);stroke-opacity:1;stroke-miterlimit:10;" d="M 221.398438 176.957031 L 207.148438 160.328125 "/>
<path style="fill:none;stroke-width:1.2;stroke-linecap:butt;stroke-linejoin:miter;stroke:rgb(0%,0%,0%);stroke-opacity:1;stroke-miterlimit:10;" d="M 216.058594 178.644531 L 204.660156 165.34375 "/>
</g>
</svg>

<svg xmlns="http://www.w3.org/2000/svg" xmlns:xlink="http://www.w3.org/1999/xlink" width="300pt" height="300pt" viewBox="0 0 300 300"><defs><symbol overflow="visible"><path d="M.453 1.594v-7.938h4.5v7.938zm.5-.5h3.5v-6.938h-3.5zm0 0"/></symbol><symbol overflow="visible" id="a"><path d="M4.813-6.344v.86c-.336-.157-.653-.27-.954-.344-.294-.082-.58-.125-.86-.125-.492 0-.867.094-1.125.28-.262.19-.39.454-.39.798 0 .293.085.512.265.656.176.15.504.267.984.36l.547.11c.658.125 1.142.352 1.454.672.32.312.485.734.485 1.265 0 .637-.216 1.122-.642 1.454-.43.325-1.055.485-1.875.485-.312 0-.648-.04-1-.11C1.36-.046 1-.147.625-.296v-.906c.352.2.703.35 1.047.453.35.105.695.156 1.03.156.5 0 .884-.097 1.157-.297.28-.196.42-.485.42-.86 0-.32-.1-.57-.296-.75-.2-.176-.523-.313-.968-.406l-.547-.11C1.81-3.148 1.33-3.36 1.03-3.64.74-3.923.595-4.313.595-4.813c0-.57.203-1.024.61-1.36.405-.344.968-.516 1.687-.516.313 0 .626.032.938.094.32.055.65.137.985.25zm0 0"/></symbol><symbol overflow="visible" id="b"><path d="M3.547-5.953c-.65 0-1.164.242-1.547.72-.375.48-.563 1.13-.563 1.952 0 .835.188 1.49.563 1.967.383.48.898.72 1.547.72.644 0 1.156-.24 1.53-.72.376-.476.564-1.132.564-1.968 0-.822-.187-1.474-.562-1.954-.375-.477-.887-.72-1.53-.72zm0-.734c.914 0 1.648.312 2.203.937.55.617.828 1.438.828 2.47 0 1.042-.277 1.87-.828 2.483-.555.617-1.29.922-2.203.922-.93 0-1.668-.305-2.22-.922C.774-1.41.5-2.237.5-3.28c0-1.033.273-1.853.828-2.47.55-.625 1.29-.938 2.22-.938zm0 0"/></symbol><symbol overflow="visible" id="c"><path d="M.89-6.563H2.08l2.906 5.485v-5.484h.86V0H4.656L1.75-5.484V0H.89zm0 0"/></symbol><symbol overflow="visible" id="d"><path d="M.89-6.563h3.766v.75h-2.89v1.938h2.61v.734h-2.61V0H.89zm0 0"/></symbol></defs><g><path fill="#fff" d="M0 0h300v300H0z"/><path d="M85.746 166.363l10.766-2.015" stroke-width="1.2" stroke="#cc0" stroke-miterlimit="10" fill="none"/><path d="M96.512 164.348l10.76-2.012" stroke-width="1.2" stroke="#f00" stroke-miterlimit="10" fill="none"/><path d="M84.8 161.297l10.763-2.012" stroke-width="1.2" stroke="#cc0" stroke-miterlimit="10" fill="none"/><path d="M95.563 159.285l10.76-2.015" stroke-width="1.2" stroke="#f00" stroke-miterlimit="10" fill="none"/><path d="M85.273 163.828l-3.636 10.328" stroke-width="1.2" stroke="#cc0" stroke-miterlimit="10" fill="none"/><path d="M81.637 174.156l-3.64 10.328" stroke-width="1.2" stroke="#000" stroke-miterlimit="10" fill="none"/><path d="M85.273 163.828l-7.125-8.312" stroke-width="1.2" stroke="#cc0" stroke-miterlimit="10" fill="none"/><path d="M78.148 155.516l-7.125-8.313" stroke-width="1.2" stroke="#000" stroke-miterlimit="10" fill="none"/><path d="M82.273 158.328h6v11h-6zm0 0" fill="#fff"/><use xlink:href="#a" x="82.273" y="166.991" fill="#cc0"/><path d="M102.797 154.305h8v11h-8zm0 0" fill="#fff"/><use xlink:href="#b" x="102.797" y="162.968" fill="#f00"/><path d="M71.023 147.203L49.5 151.227M67.926 142.54l-17.223 3.222M78.3 126.547l-7.277 20.656M49.5 151.227l-14.25-16.63M35.25 134.598l7.277-20.653M40.836 134.246l5.82-16.523M42.527 113.945l21.524-4.027M64.05 109.918l14.25 16.63M61.563 114.934l11.398 13.304M78.3 126.547l21.524-4.027M99.824 122.52l7.125 8.316" stroke-width="1.2" stroke="#000" stroke-miterlimit="10" fill="none"/><path d="M106.95 130.836l7.124 8.312M114.074 139.148l10.762-2.01" stroke-width="1.2" stroke="#cc0" stroke-miterlimit="10" fill="none"/><path d="M124.836 137.137l10.762-2.012" stroke-width="1.2" stroke="#000" stroke-miterlimit="10" fill="none"/><path d="M111.074 133.648h6v11h-6zm0 0" fill="#fff"/><use xlink:href="#a" x="111.074" y="142.312" fill="#cc0"/><path d="M135.598 135.125l7.125 8.313" stroke-width="1.2" stroke="#000" stroke-miterlimit="10" fill="none"/><path d="M142.723 143.438l7.125 8.312" stroke-width="1.2" stroke="#00f" stroke-miterlimit="10" fill="none"/><path d="M140.938 133.434l5.7 6.652" stroke-width="1.2" stroke="#000" stroke-miterlimit="10" fill="none"/><path d="M146.637 140.086l5.7 6.648M142.875 114.47l-3.637 10.327" stroke-width="1.2" stroke="#00f" stroke-miterlimit="10" fill="none"/><path d="M139.238 124.797l-3.64 10.328" stroke-width="1.2" stroke="#000" stroke-miterlimit="10" fill="none"/><path d="M149.848 151.75l10.765-2.012" stroke-width="1.2" stroke="#00f" stroke-miterlimit="10" fill="none"/><path d="M160.613 149.738l10.762-2.01" stroke-width="1.2" stroke="#000" stroke-miterlimit="10" fill="none"/><path d="M146.848 146.25h7v11h-7zm0 0" fill="#fff"/><use xlink:href="#c" x="146.848" y="154.913" fill="#00f"/><path d="M171.375 147.727l7.273-20.657M167.242 143.95l5.82-16.524M171.375 147.727l14.25 16.625M178.648 127.07l-14.246-16.63M178.648 127.07l21.528-4.027M164.402 110.44l-10.765 2.017" stroke-width="1.2" stroke="#000" stroke-miterlimit="10" fill="none"/><path d="M153.637 112.457l-10.762 2.012" stroke-width="1.2" stroke="#00f" stroke-miterlimit="10" fill="none"/><path d="M163.195 115.91l-8.61 1.61" stroke-width="1.2" stroke="#000" stroke-miterlimit="10" fill="none"/><path d="M154.586 117.52l-8.61 1.61" stroke-width="1.2" stroke="#00f" stroke-miterlimit="10" fill="none"/><path d="M139.875 108.97h7v11h-7zm0 0" fill="#fff"/><use xlink:href="#c" x="139.875" y="117.632" fill="#00f"/><path d="M200.176 123.043l14.25 16.63M205.512 121.355l11.398 13.3M207.45 102.39l-7.274 20.653M214.426 139.672l21.523-4.024M235.95 135.648l7.277-20.656M231.816 131.87l5.82-16.522M243.227 114.992l10.76-2.012" stroke-width="1.2" stroke="#000" stroke-miterlimit="10" fill="none"/><path d="M253.988 112.98l10.762-2.015" stroke-width="1.2" stroke="#3cc" stroke-miterlimit="10" fill="none"/><path d="M243.227 114.992l-14.25-16.63" stroke-width="1.2" stroke="#000" stroke-miterlimit="10" fill="none"/><path d="M261.75 105.465h6v11h-6zm0 0" fill="#fff"/><use xlink:href="#d" x="261.75" y="114.128" fill="#3cc"/><path d="M228.977 98.363l-21.528 4.028M227.77 103.832l-17.22 3.22M185.625 164.352l-7.277 20.656M189.754 168.13l-5.82 16.522M207.148 160.328l-21.523 4.024M178.348 185.008l14.25 16.63M192.598 201.637l10.76-2.016" stroke-width="1.2" stroke="#000" stroke-miterlimit="10" fill="none"/><path d="M203.36 199.62l10.76-2.01" stroke-width="1.2" stroke="#00f" stroke-miterlimit="10" fill="none"/><path d="M193.8 196.168l8.61-1.61" stroke-width="1.2" stroke="#000" stroke-miterlimit="10" fill="none"/><path d="M202.41 194.56l8.613-1.61M214.12 197.61l3.638-10.33" stroke-width="1.2" stroke="#00f" stroke-miterlimit="10" fill="none"/><path d="M217.758 187.28l3.64-10.323" stroke-width="1.2" stroke="#000" stroke-miterlimit="10" fill="none"/><path d="M211.12 192.11h7v11h-7zm0 0" fill="#fff"/><use xlink:href="#c" x="211.121" y="200.772" fill="#00f"/><path d="M221.398 176.957l-14.25-16.63M216.06 178.645l-11.4-13.3" stroke-width="1.2" stroke="#000" stroke-miterlimit="10" fill="none"/></g></svg>
